src/assets/images/expertise/node.svg

<?xml version="1.0" encoding="utf-8"?>
<svg width="152" height="93" viewBox="0 0 152 93" fill="none" xmlns="http://www.w3.org/2000/svg">
<g opacity="0.6">
<path d="M75.3719 92.9149C74.8722 92.9149 74.376 92.7849 73.9379 92.5316L69.3722 89.8312C68.6911 89.4513 69.0231 89.3144 69.249 89.2357C70.1594 88.9208 70.3408 88.849 71.3128 88.2979C71.4155 88.2397 71.549 88.2637 71.6516 88.3253L75.1597 90.4062C75.2864 90.4781 75.4678 90.4781 75.5841 90.4062L89.2572 82.5138C89.3838 82.442 89.466 82.2948 89.466 82.1442V66.3663C89.466 66.2123 89.3838 66.0685 89.2538 65.9898L75.5876 58.1043C75.4609 58.029 75.2932 58.029 75.1666 58.1043L61.5038 65.9932C61.3703 66.0685 61.2882 66.2191 61.2882 66.3663V82.1442C61.2882 82.2948 61.3738 82.4385 61.5038 82.5104L65.2481 84.6735C67.2811 85.69 68.5234 84.4921 68.5234 83.2908V67.7113C68.5234 67.4923 68.7014 67.3178 68.9205 67.3178H70.6557C70.8713 67.3178 71.0527 67.4923 71.0527 67.7113V83.2908C71.0527 86.0014 69.5742 87.5587 67.0038 87.5587C66.2132 87.5587 65.5903 87.5587 63.8551 86.703L60.2683 84.6392C59.3818 84.1259 58.8342 83.171 58.8342 82.1442V66.3663C58.8342 65.3395 59.3818 64.3846 60.2683 63.8747L73.9413 55.9755C74.8072 55.486 75.9572 55.486 76.8162 55.9755L90.4893 63.8747C91.3757 64.3881 91.9268 65.343 91.9268 66.3663V82.1442C91.9268 83.171 91.3757 84.1224 90.4893 84.6392L76.8162 92.5316C76.3747 92.7849 75.8785 92.9149 75.3719 92.9149Z" fill="#1F3D56"/>
<path d="M79.5956 82.0412C73.613 82.0412 72.3604 79.2964 72.3604 76.9896C72.3604 76.7705 72.5349 76.596 72.7539 76.596H74.52C74.7185 76.596 74.8828 76.7363 74.9136 76.9314C75.1805 78.7316 75.9746 79.6386 79.5956 79.6386C82.4774 79.6386 83.7026 78.9883 83.7026 77.4585C83.7026 76.5789 83.3535 75.9252 78.8769 75.4836C75.136 75.114 72.8224 74.2858 72.8224 71.2945C72.8224 68.5359 75.1463 66.8896 79.048 66.8896C83.4288 66.8896 85.5953 68.4093 85.8691 71.6709C85.8794 71.7839 85.8383 71.89 85.763 71.9755C85.6877 72.0543 85.585 72.1022 85.4721 72.1022H83.6992C83.5144 72.1022 83.3535 71.9721 83.3159 71.7941C82.8915 69.9015 81.8545 69.2957 79.0446 69.2957C75.8993 69.2957 75.533 70.3909 75.533 71.2123C75.533 72.2083 75.9643 72.4958 80.2117 73.0571C84.4145 73.6115 86.4099 74.3987 86.4099 77.3524C86.4099 80.3368 83.9285 82.0412 79.5956 82.0412Z" fill="#1F3D56"/>
<path d="M99.3093 65.4938C99.3093 66.9449 98.1251 68.1291 96.6739 68.1291C95.2365 68.1291 94.0386 66.9586 94.0386 65.4938C94.0386 64.0015 95.2673 62.8584 96.6739 62.8584C98.0977 62.8584 99.3093 64.0015 99.3093 65.4938ZM94.4664 65.4869C94.4664 66.7156 95.4555 67.7047 96.6705 67.7047C97.8992 67.7047 98.8883 66.6951 98.8883 65.4869C98.8883 64.2616 97.8855 63.2828 96.6705 63.2828C95.4692 63.2862 94.4664 64.2479 94.4664 65.4869ZM95.6848 64.0152H96.7047C97.0538 64.0152 97.7383 64.0152 97.7383 64.7956C97.7383 65.3397 97.3892 65.4493 97.1805 65.5211C97.5843 65.5485 97.6117 65.8155 97.6699 66.192C97.6973 66.4281 97.7418 66.832 97.8239 66.9723H97.1976C97.1839 66.832 97.0846 66.079 97.0846 66.0379C97.0436 65.8702 96.9854 65.7881 96.7766 65.7881H96.2598V66.9723H95.6848V64.0152ZM96.2427 65.3124H96.7013C97.0778 65.3124 97.1462 65.0488 97.1462 64.8948C97.1462 64.4909 96.8656 64.491 96.715 64.491H96.2427V65.3124Z" fill="#1F3D56"/>
<path fill-rule="evenodd" clip-rule="evenodd" d="M33.0319 31.18C33.0319 30.5502 32.6999 29.9718 32.1557 29.657L17.6579 21.3162C17.4114 21.1725 17.1376 21.0972 16.8604 21.0869C16.8365 21.0869 16.7304 21.0869 16.7098 21.0869C16.4326 21.0972 16.1588 21.1725 15.909 21.3162L1.4145 29.657C0.873739 29.9718 0.53833 30.5502 0.53833 31.18L0.569133 53.6455C0.569133 53.957 0.729992 54.2479 1.00722 54.4019C1.2776 54.5628 1.60958 54.5628 1.87654 54.4019L10.4911 49.47C11.0353 49.1449 11.3672 48.5768 11.3672 47.9504V37.4569C11.3672 36.8306 11.6992 36.2522 12.24 35.9407L15.909 33.829C16.1828 33.6716 16.4805 33.5929 16.7851 33.5929C17.0829 33.5929 17.3909 33.6716 17.6544 33.829L21.32 35.9407C21.8642 36.2522 22.1962 36.8306 22.1962 37.4569V47.9504C22.1962 48.5733 22.5316 49.1483 23.0723 49.47L31.6834 54.4019C31.9538 54.5628 32.2892 54.5628 32.5596 54.4019C32.8266 54.2479 32.9943 53.957 32.9943 53.6455L33.0319 31.18Z" fill="#1F3D56"/>
<path fill-rule="evenodd" clip-rule="evenodd" d="M102.78 0.297934C102.509 0.147342 102.177 0.150765 101.91 0.308202C101.643 0.465638 101.479 0.753132 101.479 1.06458V23.3111C101.479 23.5301 101.363 23.7321 101.175 23.8416C100.986 23.9511 100.75 23.9511 100.562 23.8416L96.9306 21.7504C96.3898 21.439 95.7224 21.439 95.1817 21.7504L80.6804 30.1185C80.1396 30.43 79.8042 31.0084 79.8042 31.6347V48.3778C79.8042 49.0041 80.1396 49.5825 80.6804 49.8939L95.1817 58.2689C95.7224 58.5803 96.3898 58.5803 96.934 58.2689L111.439 49.8939C111.979 49.5791 112.315 49.0041 112.315 48.3778V6.64332C112.315 6.01015 111.973 5.4249 111.418 5.11345L102.78 0.297934ZM101.435 42.8777C101.435 43.0352 101.353 43.1789 101.216 43.2576L96.2358 46.1292C96.1023 46.2079 95.9346 46.2079 95.7977 46.1292L90.8179 43.2576C90.681 43.1789 90.5989 43.0352 90.5989 42.8777V37.1279C90.5989 36.9704 90.681 36.8267 90.8179 36.748L95.7977 33.873C95.9346 33.7943 96.0989 33.7943 96.2358 33.873L101.216 36.748C101.349 36.8267 101.435 36.9704 101.435 37.1279V42.8777Z" fill="#1F3D56"/>
<path fill-rule="evenodd" clip-rule="evenodd" d="M151.072 36.9774C151.613 36.6626 151.945 36.0876 151.945 35.4647V31.4055C151.945 30.7826 151.613 30.2042 151.072 29.8894L136.663 21.5247C136.122 21.2098 135.451 21.2098 134.907 21.5212L120.409 29.8894C119.869 30.2008 119.533 30.7792 119.533 31.4055V48.1418C119.533 48.7715 119.872 49.3533 120.416 49.6648L134.822 57.8755C135.352 58.1801 136.002 58.1835 136.54 57.8857L145.254 53.0428C145.531 52.8888 145.702 52.5979 145.705 52.283C145.709 51.9682 145.541 51.6738 145.267 51.5164L130.677 43.1449C130.403 42.9874 130.235 42.6999 130.235 42.385V37.1383C130.235 36.8268 130.403 36.5359 130.674 36.3785L135.215 33.7602C135.486 33.6028 135.818 33.6028 136.088 33.7602L140.63 36.3785C140.9 36.5359 141.068 36.8234 141.068 37.1383V41.2659C141.068 41.5807 141.236 41.8682 141.506 42.0257C141.776 42.1831 142.112 42.1797 142.382 42.0223L151.072 36.9774Z" fill="#1F3D56"/>
<path fill-rule="evenodd" clip-rule="evenodd" d="M135.571 36.1937C135.674 36.1321 135.804 36.1321 135.907 36.1937L138.689 37.7988C138.792 37.8604 138.857 37.97 138.857 38.0898V41.3035C138.857 41.4233 138.792 41.5328 138.689 41.5944L135.907 43.1996C135.804 43.2612 135.674 43.2612 135.571 43.1996L132.792 41.5944C132.69 41.5328 132.625 41.4233 132.625 41.3035V38.0898C132.625 37.97 132.69 37.8604 132.792 37.7988L135.571 36.1937Z" fill="#1F3D56"/>
<path fill-rule="evenodd" clip-rule="evenodd" d="M55.453 21.6994C55.9903 21.388 56.6543 21.388 57.1882 21.6994L71.5731 29.9991C72.1105 30.3105 72.4425 30.8821 72.4425 31.505V48.1214C72.4425 48.7409 72.1105 49.3159 71.5731 49.6273L57.1882 57.9338C56.6509 58.2453 55.9869 58.2453 55.4496 57.9338L41.0681 49.6273C40.5307 49.3159 40.1987 48.7443 40.1987 48.1214V31.505C40.1987 30.8855 40.5307 30.3105 41.0681 29.9991L55.453 21.6994Z" fill="url(#paint0_linear)" fill-opacity="0.7"/>
<path opacity="0.66" d="M71.5016 30.003L57.1817 21.6999C57.0379 21.6178 56.8839 21.5596 56.7265 21.5186L40.5378 49.2103C40.6747 49.3746 40.839 49.5183 41.0273 49.6244L55.4327 57.931C55.8605 58.1774 56.3602 58.2253 56.8154 58.0781L71.9396 30.3864C71.8233 30.2358 71.6795 30.1023 71.5016 30.003Z" fill="url(#paint1_linear)"/>
<path d="M57.1566 57.9336L71.5073 49.6271C72.0446 49.3157 72.3081 48.7441 72.3081 48.1212V48.0562L56.7835 21.5349C56.3351 21.4083 55.8491 21.463 55.4384 21.7026L41.2041 29.9099L56.6911 58.1219C56.8485 58.0808 57.006 58.0192 57.1566 57.9336Z" fill="url(#paint2_linear)"/>
</g>
<defs>
<linearGradient id="paint0_linear" x1="38.9283" y1="39.8144" x2="73.4064" y2="39.8144" gradientUnits="userSpaceOnUse">
<stop stop-color="#1F3D56"/>
<stop offset="0.9947" stop-color="#335878"/>
</linearGradient>
<linearGradient id="paint1_linear" x1="39.3006" y1="39.8377" x2="72.8784" y2="39.8377" gradientUnits="userSpaceOnUse">
<stop stop-color="#1F3D56"/>
<stop offset="0.9947" stop-color="#335878"/>
</linearGradient>
<linearGradient id="paint2_linear" x1="39.9786" y1="39.7931" x2="73.238" y2="39.7931" gradientUnits="userSpaceOnUse">
<stop stop-color="#1F3D56"/>
<stop offset="0.9947" stop-color="#335878"/>
</linearGradient>
</defs>
</svg>

<svg width="152" height="93" fill="none" xmlns="http://www.w3.org/2000/svg"><g opacity=".6"><path d="M75.372 92.915c-.5 0-.996-.13-1.434-.383l-4.566-2.7c-.68-.38-.349-.518-.123-.596.91-.315 1.092-.387 2.064-.938.102-.058.236-.034.339.027l3.508 2.081a.444.444 0 00.424 0l13.673-7.892a.431.431 0 00.209-.37V66.366a.443.443 0 00-.212-.376l-13.666-7.886a.42.42 0 00-.421 0l-13.663 7.89a.437.437 0 00-.216.372v15.778c0 .15.086.294.216.366l3.744 2.163c2.033 1.017 3.275-.18 3.275-1.382V67.71c0-.219.178-.393.398-.393h1.735c.215 0 .397.174.397.393v15.58c0 2.71-1.479 4.268-4.05 4.268-.79 0-1.413 0-3.148-.856l-3.587-2.064a2.887 2.887 0 01-1.434-2.495V66.366c0-1.026.548-1.981 1.434-2.491l13.673-7.9c.866-.489 2.016-.489 2.875 0l13.673 7.9a2.889 2.889 0 011.438 2.491v15.778a2.894 2.894 0 01-1.438 2.495l-13.673 7.893a2.895 2.895 0 01-1.444.383z" fill="#1F3D56"/><path d="M79.596 82.041c-5.983 0-7.236-2.745-7.236-5.051 0-.22.175-.394.394-.394h1.766c.199 0 .363.14.394.335.266 1.8 1.06 2.708 4.682 2.708 2.881 0 4.107-.65 4.107-2.18 0-.88-.35-1.534-4.826-1.975-3.741-.37-6.055-1.198-6.055-4.19 0-2.758 2.324-4.404 6.226-4.404 4.38 0 6.547 1.52 6.821 4.78a.4.4 0 01-.397.431H83.7a.392.392 0 01-.383-.307c-.425-1.892-1.462-2.498-4.271-2.498-3.146 0-3.512 1.095-3.512 1.916 0 .996.431 1.284 4.679 1.845 4.203.555 6.198 1.342 6.198 4.295 0 2.985-2.481 4.69-6.814 4.69zM99.31 65.494a2.64 2.64 0 01-2.636 2.635 2.64 2.64 0 01-2.635-2.635c0-1.493 1.228-2.636 2.635-2.636a2.632 2.632 0 012.635 2.636zm-4.844-.007a2.21 2.21 0 002.205 2.218 2.226 2.226 0 002.217-2.218 2.212 2.212 0 00-4.422 0zm1.219-1.472h1.02c.349 0 1.033 0 1.033.78 0 .545-.349.654-.558.726.404.028.432.294.49.671.027.236.072.64.154.78h-.626c-.014-.14-.113-.893-.113-.934-.041-.168-.1-.25-.308-.25h-.517v1.184h-.575v-2.957zm.558 1.297h.458c.377 0 .445-.263.445-.417 0-.404-.28-.404-.431-.404h-.472v.821z" fill="#1F3D56"/><path fill-rule="evenodd" clip-rule="evenodd" d="M33.032 31.18c0-.63-.332-1.208-.876-1.523l-14.498-8.34a1.705 1.705 0 00-.798-.23h-.15c-.277.01-.551.085-.801.23l-14.495 8.34c-.54.315-.876.893-.876 1.523L.57 53.645c0 .312.161.603.438.757.27.16.603.16.87 0l8.614-4.932c.544-.325.876-.893.876-1.52V37.457c0-.626.332-1.205.873-1.516l3.669-2.112c.274-.157.571-.236.876-.236.298 0 .606.079.87.236l3.665 2.112c.544.311.876.89.876 1.516V47.95c0 .623.336 1.198.876 1.52l8.611 4.932c.27.16.606.16.877 0a.877.877 0 00.434-.757l.038-22.465zM102.78.298a.877.877 0 00-1.301.767V23.31a.614.614 0 01-.304.53.613.613 0 01-.613 0l-3.631-2.09a1.754 1.754 0 00-1.75 0l-14.5 8.367a1.75 1.75 0 00-.877 1.517v16.743c0 .626.336 1.205.876 1.516l14.502 8.375a1.76 1.76 0 001.752 0l14.505-8.375c.54-.315.876-.89.876-1.516V6.643c0-.633-.342-1.218-.897-1.53L102.78.298zm-1.345 42.58a.435.435 0 01-.219.38l-4.98 2.871a.436.436 0 01-.438 0l-4.98-2.871a.435.435 0 01-.22-.38v-5.75c0-.158.083-.301.22-.38l4.98-2.875a.436.436 0 01.438 0l4.98 2.875a.444.444 0 01.219.38v5.75zM151.072 36.977a1.75 1.75 0 00.873-1.512v-4.06c0-.622-.332-1.2-.873-1.516l-14.409-8.364a1.759 1.759 0 00-1.756-.004l-14.498 8.368c-.54.312-.876.89-.876 1.517v16.736c0 .63.339 1.211.883 1.523l14.406 8.21c.53.305 1.18.309 1.718.01l8.714-4.842a.879.879 0 00.013-1.527l-14.59-8.371a.874.874 0 01-.442-.76v-5.247c0-.311.168-.602.439-.76l4.541-2.618a.866.866 0 01.873 0l4.542 2.619c.27.157.438.444.438.76v4.127a.872.872 0 001.314.756l8.69-5.045z" fill="#1F3D56"/><path fill-rule="evenodd" clip-rule="evenodd" d="M135.571 36.194a.329.329 0 01.336 0l2.782 1.605a.34.34 0 01.168.29v3.215a.34.34 0 01-.168.29l-2.782 1.606a.329.329 0 01-.336 0l-2.779-1.606a.341.341 0 01-.167-.29V38.09c0-.12.065-.23.167-.291l2.779-1.605z" fill="#1F3D56"/><path fill-rule="evenodd" clip-rule="evenodd" d="M55.453 21.7a1.728 1.728 0 011.735 0L71.573 30c.538.31.87.882.87 1.505v16.616c0 .62-.332 1.195-.87 1.506l-14.385 8.307a1.734 1.734 0 01-1.738 0l-14.382-8.307a1.739 1.739 0 01-.87-1.506V31.505c0-.62.333-1.194.87-1.506l14.385-8.3z" fill="url(#paint0_linear)" fill-opacity=".7"/><path opacity=".66" d="M71.502 30.003L57.182 21.7a1.86 1.86 0 00-.456-.181L40.538 49.21c.137.165.301.308.49.414l14.405 8.307c.428.246.927.294 1.382.147L71.94 30.386a1.441 1.441 0 00-.438-.383z" fill="url(#paint1_linear)"/><path d="M57.157 57.934l14.35-8.307c.538-.311.801-.883.801-1.506v-.065L56.783 21.535a1.733 1.733 0 00-1.345.168L41.204 29.91l15.487 28.212c.157-.041.315-.103.466-.188z" fill="url(#paint2_linear)"/></g><defs><linearGradient id="paint0_linear" x1="38.928" y1="39.814" x2="73.406" y2="39.814" gradientUnits="userSpaceOnUse"><stop stop-color="#1F3D56"/><stop offset=".995" stop-color="#335878"/></linearGradient><linearGradient id="paint1_linear" x1="39.301" y1="39.838" x2="72.878" y2="39.838" gradientUnits="userSpaceOnUse"><stop stop-color="#1F3D56"/><stop offset=".995" stop-color="#335878"/></linearGradient><linearGradient id="paint2_linear" x1="39.979" y1="39.793" x2="73.238" y2="39.793" gradientUnits="userSpaceOnUse"><stop stop-color="#1F3D56"/><stop offset=".995" stop-color="#335878"/></linearGradient></defs></svg>
